static/fonts/fa/swatchbook.svg

<svg xmlns="http://www.w3.org/2000/svg" viewBox="0 0 512 512"><!--! Font Awesome Free 6.0.0-beta3 by @fontawesome - https://fontawesome.com License - https://fontawesome.com/license/free (Icons: CC BY 4.0, Fonts: SIL OFL 1.1, Code: MIT License) Copyright 2021 Fonticons, Inc. --><path d="M434.6 167.8L344.5 77.38C332.1 64.88 312 64.88 299.5 77.25L224 152.9V424l210.6-211.1C447.1 200.4 447.1 180.2 434.6 167.8zM480 320h-106.9l-186.5 186.5C184.6 508.6 182.1 510.1 180 512H480c17.62 0 32-14.38 32-32v-128C512 334.4 497.6 320 480 320zM192 32c0-17.62-14.38-32-32-32L32 .0001c-17.62 0-32 14.38-32 32v384c0 53 43 95.1 96 95.1s96-42.1 96-95.1V32zM96 440c-13.25 0-24-10.75-24-24s10.75-24 24-24s24 10.75 24 24S109.2 440 96 440zM128 256H64v-64h64V256zM128 128H64V64h64V128z"/></svg>

<svg xmlns="http://www.w3.org/2000/svg" viewBox="0 0 512 512"><!-- Font Awesome Free 5.15.4 by @fontawesome - https://fontawesome.com License - https://fontawesome.com/license/free (Icons: CC BY 4.0, Fonts: SIL OFL 1.1, Code: MIT License) --><path d="M434.66,167.71h0L344.5,77.36a31.83,31.83,0,0,0-45-.07h0l-.07.07L224,152.88V424L434.66,212.9A32,32,0,0,0,434.66,167.71ZM480,320H373.09L186.68,506.51c-2.06,2.07-4.5,3.58-6.68,5.49H480a32,32,0,0,0,32-32V352A32,32,0,0,0,480,320ZM192,32A32,32,0,0,0,160,0H32A32,32,0,0,0,0,32V416a96,96,0,0,0,192,0ZM96,440a24,24,0,1,1,24-24A24,24,0,0,1,96,440Zm32-184H64V192h64Zm0-128H64V64h64Z"/></svg>
